Obsidian-SemiLight/actions/22s/view-time-schedule-insert.svg

<svg viewBox="0 0 22 22" xmlns="http://www.w3.org/2000/svg"><path d="m3 3v16h11v-1h-10v-11h14v7h1v-11h-2v3h-2v-3h-8v3h-2v-3zm2 5v3h1v-1h4v1h1v-3h-1v1h-4v-1zm3 4v3h1v-1h4v1h1v-3h-1v1h-4v-1z" fill="#4d4d4d"/></svg>

<svg xmlns="http://www.w3.org/2000/svg" viewBox="0 0 22 22">
  <defs id="defs3051">
    <style type="text/css" id="current-color-scheme">
      .ColorScheme-Text {
        color:#4d4d4d;
      }
      </style>
  </defs>
 <path 
    style="fill:currentColor;fill-opacity:1;stroke:none" 
    d="M 3 3 L 3 19 L 14 19 L 14 18 L 4 18 L 4 7 L 18 7 L 18 14 L 19 14 L 19 3 L 17 3 L 17 6 L 15 6 L 15 3 L 7 3 L 7 6 L 5 6 L 5 3 L 3 3 z M 5 8 L 5 11 L 6 11 L 6 10 L 10 10 L 10 11 L 11 11 L 11 8 L 10 8 L 10 9 L 6 9 L 6 8 L 5 8 z M 8 12 L 8 15 L 9 15 L 9 14 L 13 14 L 13 15 L 14 15 L 14 12 L 13 12 L 13 13 L 9 13 L 9 12 L 8 12 z "
	class="ColorScheme-Text"
    />  
</svg>
